skatepark/assets/svg/post-category.svg

<svg fill="none" height="16" viewBox="0 0 18 16" width="18" xmlns="http://www.w3.org/2000/svg"><path clip-rule="evenodd" d="m9.19795 3.75-.9868-1.97361c-.0847-.16939-.25783-.27639-.44722-.27639h-5.76393c-.27614 0-.5.22386-.5.5v11.75c0 .2761.22386.5.5.5h14c.2761 0 .5-.2239.5-.5v-9.5c0-.27614-.2239-.5-.5-.5zm.92705-1.5-.57221-1.14443c-.33879-.677565-1.03131-1.10557-1.78886-1.10557h-5.76393c-1.104569 0-2 .895431-2 2v11.75c0 1.1046.89543 2 2 2h14c1.1046 0 2-.8954 2-2v-9.5c0-1.10457-.8954-2-2-2z" fill="#000" fill-rule="evenodd"/></svg>

<svg width="18" height="16" viewBox="0 0 18 16" fill="none" xmlns="http://www.w3.org/2000/svg">
<path fill-rule="evenodd" clip-rule="evenodd" d="M9.19795 3.75L8.21115 1.77639C8.12645 1.607 7.95332 1.5 7.76393 1.5H2C1.72386 1.5 1.5 1.72386 1.5 2V13.75C1.5 14.0261 1.72386 14.25 2 14.25H16C16.2761 14.25 16.5 14.0261 16.5 13.75V4.25C16.5 3.97386 16.2761 3.75 16 3.75H9.19795ZM10.125 2.25L9.55279 1.10557C9.214 0.428005 8.52148 0 7.76393 0H2C0.895431 0 0 0.895431 0 2V13.75C0 14.8546 0.89543 15.75 2 15.75H16C17.1046 15.75 18 14.8546 18 13.75V4.25C18 3.14543 17.1046 2.25 16 2.25H10.125Z" fill="black"/>
</svg>
